X: 1
T: Concord Bridge
P: piffero primo a0809
O: Roy Watrous
%R: jig, march
F: http://ancients.sudburymuster.org/mus/sng/pdf/concordbridgeC0.pdf
Z: 2020 John Chambers <jc:trillian.mit.edu>
M: 6/8
L: 1/8
K: Amix
z |\
A2A B2A | F3 Afe | d2A Bcd | e3 d2e |\
f2d f2d | afd bge | fed b2d | a4 z :|
|: f |\
afd DFA | dAf daf | bge EGB | Acd e2e |\
f2d Bcd | e2g b2g | afd B2d | A4 z :|
